src/topics/icons/heroku-redis.svg

<?xml version="1.0" encoding="UTF-8" standalone="no"?>
<svg width="256px" height="304px" viewBox="0 0 256 304" version="1.1" xmlns="http://www.w3.org/2000/svg" xmlns:xlink="http://www.w3.org/1999/xlink" preserveAspectRatio="xMidYMid">
    <g>
        <path d="M103.604341,0.0038 C51.2763409,0.0038 13.2963409,37.9838 13.2963409,90.3118 C13.2963409,130.0708 35.2543409,161.4968 68.7433409,174.3218 L1.46634086,287.5878 C-0.45265914,290.8138 -0.49065914,294.8298 1.36734086,298.0968 C3.22534086,301.3638 6.69734086,303.3788 10.4543409,303.3788 L103.604341,303.3788 C109.379341,303.3788 114.059341,298.6958 114.059341,292.9238 L114.059341,170.1628 L114.059341,136.1028 L114.059341,10.4588 C114.059341,4.6828 109.379341,0.0038 103.604341,0.0038 Z M254.872841,288.205 L195.460841,170.702 C224.281841,156.148 242.701841,126.724 242.701841,90.308 C242.701841,37.986 204.723841,-5.68434189e-14 152.393841,-5.68434189e-14 C146.622841,-5.68434189e-14 141.938841,4.684 141.938841,10.455 C141.938841,16.233 146.622841,20.91 152.393841,20.91 C193.250841,20.91 221.792841,49.451 221.792841,90.308 C221.792841,131.173 193.250841,159.707 152.393841,159.707 C146.622841,159.707 141.938841,164.391 141.938841,170.162 C141.938841,175.933 146.622841,180.617 152.393841,180.617 C160.537841,180.617 168.280841,179.597 175.639841,177.846 L236.207841,297.642 C238.054841,301.28 241.727841,303.378 245.546841,303.378 C247.136841,303.378 248.746841,303.016 250.258841,302.256 C255.409841,299.65 257.479841,293.363 254.872841,288.205 Z" fill="#283174"></path>
    </g>
</svg>

<svg height="304" preserveAspectRatio="xMidYMid" viewBox="0 0 256 304" width="256" xmlns="http://www.w3.org/2000/svg"><path d="m103.604341.0038c-52.3280001 0-90.3080001 37.98-90.3080001 90.308 0 39.759 21.958 71.185 55.447 84.01l-67.27700004 113.266c-1.919 3.226-1.957 7.242-.099 10.509s5.33 5.282 9.08700004 5.282h93.1500001c5.775 0 10.455-4.683 10.455-10.455v-122.761-34.06-125.644c0-5.776-4.68-10.455-10.455-10.455zm151.2685 288.2012-59.412-117.503c28.821-14.554 47.241-43.978 47.241-80.394 0-52.322-37.978-90.308-90.308-90.308-5.771 0-10.455 4.684-10.455 10.455 0 5.778 4.684 10.455 10.455 10.455 40.857 0 69.399 28.541 69.399 69.398 0 40.865-28.542 69.399-69.399 69.399-5.771 0-10.455 4.684-10.455 10.455s4.684 10.455 10.455 10.455c8.144 0 15.887-1.02 23.246-2.771l60.568 119.796c1.847 3.638 5.52 5.736 9.339 5.736 1.59 0 3.2-.362 4.712-1.122 5.151-2.606 7.221-8.893 4.614-14.051z" fill="#283174"/></svg>
